X:1
T:pour deux violons, luth, et basse continue RV 93
C:Antonio Vivaldi (1678 - 1741)
L:1/8
Q:1/4=30
M:4/4
K:Dmaj
V:1 treble nm="pour deux violons, luth, et basse continue RV 93" snm="Clavm."
d/>f/g/>a/ d/>f/a/>f/ e/>c/d/>e/ A/>b/a/>g/ | f/>a/d/>f/ a/>f/e/>d/ eA z a |a/>f/e/>d/ a/>f/e/>d/ b/a/b/b/ b/a/b/b/ | b/e/f/e/ b/e/f/e/ a/g/a/a/ a/g/a/a/ |  a/d/e/d/ a/d/e/d/ ^g/a/b/a/ g/f/e/d/ | c/c/B/A/ e/c/B/A/ a/c/B/A/ e/c/B/A/ |  a/b/a/b/a/b/a/b/ a^g/f/e/d/c/B/ |  c/e/a/c/ B^g a4 | g/>e/B/>e/ g/>b/g/>e/ ^A/>c/F/>c/ e/>g/f/>e/ |  d/c/B z f f/4B/4c/4B/4 c/4B/4c/4B/4 f/4B/4c/4B/4 c/4B/4c/4B/4 |  b/4f/4g/4f/4g/4f/4g/4f/4 b/4f/4g/4f/4g/4f/4g/4f/4 b/f/e/d/ c>B | B2 z d d/>f/g/>a/ d/>f/a/>f/ | e/c/d/e/ A/g/b/g/ f/e/d z a | a/b/a/g/f/e/d/=c/ B/A/G z b | b/c'/b/a/ g/f/e/d/ c/B/A z/ c/e/g/ |  f/4A/4B/4A/4B/4A/4B/4A/4 f/4A/4B/4A/4B/4A/4B/4A/4 e/4A/4B/4A/4B/4A/4B/4A/4 g/4A/4B/4A/4B/4A/4B/4A/4 | f/>g/a/>d/ f/4e/8f/8e/8f/8(3e/8f/8e/8-e/d/ d4 |
